X: 1094
T: Miss Casey
R:double jig
N:"collected by Ennis"
B:O'Neill's 1094
Z:Transcribed by henrik.norbeck@mailbox.swipnet.se
M:6/8
L:1/8
K:A
A/G/|EAA AGE|cBc dcd|e=ge ded|cAA GED|
EAA AGE|c3 dcd|e=ge ded|cAA A2:|
z|eaa age|dcd gab|age ded|cAA GED|
[1 eaa age|dcd gab|agf ded|cAA A2:|
[2 EAA AGE|c3 dcd|e=ge ded|cAA A2||


